X:1
T:O House of Many Mansions
T:O House of Many Mansions
T:George Coles Stebbins, 1900
T:Elisha  Norman Gunnison (1837-1880)
T:Public Domain Courtesy of the Cyber Hymnal™
T:Public Domain Courtesy of the Cyber Hymnal™
C:George Coles Stebbins, 1900
Z:Public Domain
Z:Courtesy of the Cyber Hymnal™
%%score ( 1 2 ) 3
L:1/8
Q:1/4=105
M:3/4
K:F
V:1 treble 
V:2 treble 
V:3 bass 
V:1
 [FA]2 | [FA]3 [FA] [FG][FA] | [FB]2 [FA]2 [FA]2 | [EA]3 [EG] [CE]C | [CF]4 [_EF]2 | %5
w: 1.~O|house of ma- ny|man- sions, Thy|doors are o- pen|wide, And|
w: 2.~O|house of ma- ny|man- sions, My|wea- ry spir- it|waits And|
w: 3.~O|house of ma- ny|man- sions, O|house not made with|hands, I|
 [DF]3 [DF] [^CE][DF] | [DG]2 [DF]2 [FA]2 | [FA]3 [FG] [FG]F | [EG]4 [EG]2 | [EB]3 [EB] [EA][EG] | %10
w: dear are all the|fac- es Up-|on the o- ther|side. Thy|por- tals they are|
w: longs to join the|ran- somed With-|in thy pearl- y|gates; Who|en- ter through thy|
w: sigh for thee while|wait- ing With-|in these bor- der|lands. I|know that but in|
 [FA]2 [FA]2 [Fc]2 | [Fc]3 [Fc] [Fd][^Fc] | [GB]4 [GB]2 | [GB]3 [FB] [EA][EG] | [Fc]2 [Fc]2 [FB]2 | %15
w: gold- en, And|those who en- ter|in Shall|know no more of|sor- row, Of|
w: por- tals, The|man- sions of the|blest; Who|come to thee a-|wea- ry, And|
w: dy- ing, The|thresh- old is crossed|o’er; There|shall be no more|sor- row In|
 [FA]3 [CF] [DF][EG] | F4 ||"^Refrain" [Fc]2 | [Fc]3 [Fc] [Fd][Fc] | [Gc]2 [EG]2 [EA]2 | %20
w: wear- i- ness and|sin.||||
w: find in thee their|rest.|O|house of ma- ny|man- sions, Thy|
w: thy for- ev- er-|more.||||
 [EB]3 [Gc] [Be]>[Bd] | [Ac]4 [Ac]2 | [Af]3 [Fc] [FB][FA] | [FA]2 [FG]2 [FA]2 | %24
w: ||||
w: doors are o- pen|wide, And|dear are all the|fac- es Up-|
w: ||||
 [FB]3 [CE] [CE][CE] | [CF]4 |] %26
w: ||
w: on the o- ther|side.|
w: ||
V:2
 x2 | x6 | x6 | x5 C | x6 | x6 | x6 | x5 F | x6 | x6 | x6 | x6 | x6 | x6 | x6 | x6 | F4 || x2 | %18
 x6 | x6 | x6 | x6 | x6 | x6 | x6 | x4 |] %26
V:3
 [F,C]2 | [F,C]3 [F,C] [F,B,][F,C] | [F,D]2 [F,C]2 [F,C]2 | [C,C]3 [C,B,] [C,G,][E,B,] | %4
 [F,A,]4 [A,,C]2 | [B,,B,]3 [B,,F,] [B,,G,][B,,F,] | [B,,E,]2 [B,,F,]2 [A,,C]2 | %7
 [G,,=B,]3 [G,,B,] [G,,B,][G,,B,] | [C,C]4 [C,C]2 | [C,G,]3 [C,D] [C,C][C,C] | %10
 [F,C]2 [F,C]2 [A,C]2 | [A,C]3 [A,_E] [B,D][A,D] | [G,D]4 [F,_D]2 | [E,C]3 [D,C] [C,C][B,,C] | %14
 [A,,C]2 [A,,C]2 [G,,D]2 | [C,C]3 [C,A,] [C,G,][C,B,] | [F,A,]4 || [F,A,]2 | %18
 [F,A,]3 [F,A,] [A,C][A,F] | [B,E]2 [B,C]2 [A,C]2 | [G,C]3 [E,C] [C,C]>[E,C] | [F,C]4 [F,C]2 | %22
 [F,C]3 [_E,A,] [D,B,][C,C] | [B,,D]2 [B,,D]2 [A,,D]2 | [G,,D]3 [C,G,] [C,G,][C,B,] | [F,A,]4 |] %26

